X: 113
T:Kininvie House
B:William Marshall's Scottish Airs, Melodies, Strathspeys, Reels &c (1822)
C:William Marshall
L:1/8
M:C
O:Scotland
R:Strathspey
Z:Clark Bernst + Richard Robinson
%%Page:46 - 2
F:http://richardrobinson.tunebook.org.uk/tune/3956
%%TBL:{"version":1,"type":"tune","id":"3956"}
K:C
%%staves {1 2}
V:1
(E>G) GA/B/ c<E D2 | E>G- GA/B/ cGce | \
f/e/f/g/ a/g/f/e/ dDFD | EG- GA/B/ cGce :|
~g>age dD-D e/f/ | ~g>a g<e cgec | \
f/e/f/g/ a/g/f/e/ dD-D.F | EG- GA/B/ cGce |
~g>age dD-D e/f/ | ~g>a g<e cgec | \
f/e/f/g/ a/g/f/e/ dDFD | EGFA Gfeg |]
V:2 middle=d clef=bass
L:1/4
cccg | cccc | dc[Gg][Gg] | cGcc :| \
c'c'gg | c'c'c'c' | d'c'gg | c'gcc | c'c'gg | c'c'c'c' | d'c'gg | c'fgc |]

